X:112
S:Uppt. efter Anna Nordström från Bunge socken.
M:2/4
L:1/8
K:F
(C/F/)|A A G G/ G/|F3 (F/A/)|c c B B|
w:Dä_ sat a käl-liŋg u spann äu--täi 'n mör-kar
A A A c|f f/ f/ d d|c c c B|A A G G|
w:kam-ma-rä. Ha duŋ-kä-dä mä sin ham-ma-rä; u traks komm hän-näs
HF2 z A|c d/ e/ f d|c2 z A|B B/ G/ c B|
w:mann ču hi fal-li hip-pum häjj! ču hi fal-li hip-pum
HA2 z c|f f/ f/ d d|c c c B|A A G G|F2 z|]
w:häjj! Ha duŋ-kä-dä mä sin ham-ma-rä; u traks komm hän-näs mann.
